Obsidian-SemiLight/actions/16s/edit-select-none.svg

<svg viewBox="0 0 16 16" xmlns="http://www.w3.org/2000/svg"><path d="m2 2v3h1v-2h2v-1h-2zm9 0v1h2v2h1v-3zm-7 2v3h3v-3zm5 0v3h3v-3zm-4 1h1v1h-1zm5 0h1v1h-1zm-6 4v3h3v-3zm1 1h1v1h-1zm-3 1v3h3v-1h-2v-2z" fill="#4d4d4d"/><path d="m9 9.83 1.667 1.667-1.667 1.667.833.833 1.667-1.667 1.667 1.667.833-.833-1.667-1.667 1.667-1.667-.833-.833-1.667 1.667-1.667-1.667z" fill="#da4453"/></svg>

<svg xmlns="http://www.w3.org/2000/svg" viewBox="0 0 16 16">
  <defs id="defs3051">
    <style type="text/css" id="current-color-scheme">
      .ColorScheme-Text {
        color:#4d4d4d;
      }
      .ColorScheme-NegativeText {
        color:#da4453;
      }
      </style>
  </defs>
 <path style="fill:currentColor;fill-opacity:1;stroke:none" 
     d="M 2 2 L 2 5 L 3 5 L 3 3 L 5 3 L 5 2 L 3 2 L 2 2 z M 11 2 L 11 3 L 13 3 L 13 5 L 14 5 L 14 2 L 11 2 z M 4 4 L 4 7 L 7 7 L 7 4 L 4 4 z M 9 4 L 9 7 L 12 7 L 12 4 L 9 4 z M 5 5 L 6 5 L 6 6 L 5 6 L 5 5 z M 10 5 L 11 5 L 11 6 L 10 6 L 10 5 z M 4 9 L 4 12 L 7 12 L 7 9 L 4 9 z M 5 10 L 6 10 L 6 11 L 5 11 L 5 10 z M 2 11 L 2 14 L 5 14 L 5 13 L 3 13 L 3 11 L 2 11 z "
     class="ColorScheme-Text"
     />
  <path
     style="fill:currentColor;fill-opacity:1;stroke:none" 
     class="ColorScheme-NegativeText"
     d="M 9,9.83 10.667,11.497 9,13.164 9.833,13.997 11.5,12.33 13.167,13.997 14,13.164 12.333,11.497 14,9.83 13.167,8.997 11.5,10.664 9.833,8.997 Z" />
</svg>
